!!!!SEGMENT: Bau2004-Gloriosus_Dei_apostolus_Bartholomeus--Motetti_de_la_corona_IV.krn
!!!id: Bau2004
!!!AGN: Motet
!!!SCT: Sherr (1992)
!!!voices: 4
!!!COM: Noel Bauldeweyn
!!!OTL: Gloriosus Dei apostolus Bartholomeus (Motetti de la corona IV)
**kern	**kern	**kern	**kern
*part4	*part3	*part2	*part1
*staff4	*staff3	*staff2	*staff1
*I"Bassus	*I"Tenor	*I"Altus	*I"Superius
*I'B	*I'T	*I'A	*I'S
*clefF4	*clefGv2	*clefG2	*clefG2
*k[]	*k[]	*k[]	*k[]
*C:	*C:	*C:	*C:
*M2/1	*M2/1	*M2/1	*M2/1
*met(C|)	*met(C|)	*met(C|)	*met(C|)
!!section: Prima pars: Gloriosus Dei apostolus Bartholomeus
!!!OMD: Prima pars: Gloriosus Dei apostolus Bartholomeus
=1	=1	=1	=1
0r	0G	0r	0r
=2	=2	=2	=2
0r	1c	0r	0r
.	1d	.	.
=3	=3	=3	=3
0r	1e	0r	0g
.	2r	.	.
.	[2e	.	.
=4	=4	=4	=4
0r	2e]	0r	1cc
.	1f	.	.
.	.	.	1dd
.	2f	.	.
=5	=5	=5	=5
0r	4e	0r	1ee
.	4f	.	.
.	4g	.	.
.	4f	.	.
.	4e	.	2r
.	4d	.	.
.	[2c	.	[2ee
=6	=6	=6	=6
0r	4c]	0r	2ee]
.	4A	.	.
.	1a	.	1ff
.	4g	.	2ff
.	4f	.	.
=7	=7	=7	=7
0C	2g	0r	4ee
.	.	.	4ff
.	2e	.	4gg
.	.	.	4ff
.	2g	.	4ee
.	.	.	4dd
.	4f	.	[2cc
.	4e	.	.
=8	=8	=8	=8
1F	0d	0r	2cc]
.	.	.	4b
.	.	.	4a
1G	.	.	1b
=9	=9	=9	=9
1A	1c	0c	2cc
.	.	.	4b
.	.	.	4a
2r	1r	.	2g
[2A	.	.	[2cc
=10	=10	=10	=10
2A]	0r	1f	4cc]
.	.	.	4b
1B-X	.	.	1dd
.	.	1g	.
2B-i	.	.	4cc
.	.	.	4b
=11	=11	=11	=11
2A	0r	1a	0cc
2.c	.	.	.
.	.	2r	.
4B-X	.	.	.
4A	.	[2a	.
4G	.	.	.
=12	=12	=12	=12
4F	1d	2a]	0r
4D	.	.	.
1G	.	1b-X	.
.	1d	.	.
4F	.	2b-i	.
4E	.	.	.
=13	=13	=13	=13
2F	1d	2a	1r
2G	.	2.g	.
1C	2.e	.	2r
.	.	4f	.
.	.	4e	[2ee
.	4f	4d	.
=14	=14	=14	=14
2r	2g	2c	2ee]
2.F	2c	1a	1.ff
.	2A	.	.
4E	.	.	.
2D	2B	4g	.
.	.	4f	.
=15	=15	=15	=15
1C	1c	0g	4ee
.	.	.	4ff
.	.	.	4gg
.	.	.	4ff
1C	1e	.	4ee
.	.	.	4dd
.	.	.	[2cc
=16	=16	=16	=16
0G	0d	1.g	2cc]
.	.	.	4b
.	.	.	4a
.	.	.	1b
.	.	4f	.
.	.	4e	.
=17	=17	=17	=17
1C	1c	0e	1cc
1r	1r	.	1r
=18	=18	=18	=18
1.C	1.c	1r	1.ee
.	.	[1g	.
2C	2c	.	2ee
=19	=19	=19	=19
1G	1B	2g]	1dd
.	.	2g	.
1A	1c	2e	1cc
.	.	2f	.
=20	=20	=20	=20
2G	2d	1g	2b
1C	1.c	.	1ee
.	.	2r	.
2C	.	[2g	2ee
=21	=21	=21	=21
1G	2B	2g]	1dd
.	2B	2g	.
1A	1c	2e	1cc
.	.	2f	.
=22	=22	=22	=22
1G	2d	1g	[0b
.	2r	.	.
2r	2.d	1r	.
[2G	.	.	.
.	4d	.	.
=23	=23	=23	=23
2G]	2e	2.g	1b]
2E	2e	.	.
.	.	4g	.
2F	2.d	2a	1r
2D	.	2a	.
.	4c	.	.
=24	=24	=24	=24
1G	2B	2.g	2.dd
.	2G	.	.
.	.	4f	4dd
1r	2.c	2e	2ee
.	.	2c	2ee
.	8BL	.	.
.	8AJ	.	.
=25	=25	=25	=25
1.G	0B	1.g	2.dd
.	.	.	4cc
.	.	.	2b
2G	.	4f	2g
.	.	4e	.
=26	=26	=26	=26
2.A	1r	1e	2.cc
4A	.	.	8bL
.	.	.	8aJ
2.G	2.d	1r	1b
4F	4d	.	.
=27	=27	=27	=27
2E	2e	2.g	0r
2C	2e	.	.
.	.	4g	.
2.F	2.d	2a	.
.	.	2a	.
8EL	4c	.	.
8DJ	.	.	.
=28	=28	=28	=28
1G	2B	2.g	2.dd
.	2G	.	.
.	.	4f	4dd
1r	2.c	2e	2ee
.	.	2c	2ee
.	8BL	.	.
.	8AJ	.	.
=29	=29	=29	=29
1.G	2B	1g	2.dd
.	4G	.	.
.	4A	.	4cc
.	4B	2r	2b
.	4c	.	.
2G	[2d	[2g	2g
=30	=30	=30	=30
2.A	2d]	4g]	2.cc
.	.	4e	.
.	2c	2f#i	.
4A	.	.	8bL
.	.	.	8aJ
2.G	1d	1g	2.b
4F	.	.	4a
=31	=31	=31	=31
2E	2r	1r	2b
4C	2.e	.	2cc
4D	.	.	.
4E	.	1g	1b
4F	4d	.	.
4G	2e	.	.
4E	.	.	.
=32	=32	=32	=32
1F	2c	1a	1r
.	2A	.	.
1r	4B	2g	1dd
.	4c	.	.
.	4d	2f	.
.	4B	.	.
=33	=33	=33	=33
0r	2.c	2e	1ee
.	.	2g	.
.	4B	.	.
.	2d	2f	2dd
.	2A	2e	2cc
=34	=34	=34	=34
1G	0r	2d	2b
.	.	1g	2dd
1A	.	.	2cc
.	.	2f#i	2cc
=35	=35	=35	=35
2.G	1d	2.g	1b
4F	.	4a	.
2E	1e	1g	1b
2G	.	.	.
=36	=36	=36	=36
2F	2d	2r	1r
2E	2c	2g	.
1D	2B	2g	2r
.	2d	2f	2dd
=37	=37	=37	=37
2r	2c	2e	2ee
2G	2B	2g	2dd
2A	1A	2e	1cc
2A	.	2c	.
=38	=38	=38	=38
1G	2r	1g	1dd
.	2d	.	.
2C	2e	1g	2cc
2G	2d	.	2b
=39	=39	=39	=39
1A	1c	2e	2a
.	.	2f	2cc
2G	1d	2g	2b
2D	.	[2f	[2a
=40	=40	=40	=40
2F	2c	4f]	4a]
.	.	4e	4g
2G	2B	1d	1g
1D	1A	.	.
.	.	2d	2f#i
=41	=41	=41	=41
2r	2G	1d	1g
2G	2B	.	.
2G	2B	1r	1r
2A	2c	.	.
=42	=42	=42	=42
2G	2B	1r	1r
2F	2A	.	.
1G	1G	2r	2r
.	.	2g	2b
=43	=43	=43	=43
0r	1r	2g	2b
.	.	2a	2cc
.	2r	2g	2b
.	[2d	2f	2a
=44	=44	=44	=44
1G	2d]	1g	1g
.	2B	.	.
2E	1c	1r	1r
[2F	.	.	.
=45	=45	=45	=45
2F]	2A	1r	2r
2D	1B	.	1dd
1G	.	1g	.
.	4A	.	2b
.	4G	.	.
=46	=46	=46	=46
2C	2G	2e	1cc
2r	2A	1f	.
1r	2r	.	2a
.	[2d	2d	[2b
=47	=47	=47	=47
1G	2d]	1.g	2b]
.	2B	.	4a
.	.	.	4g
2E	1c	.	2g
[2F	.	2f	2a
=48	=48	=48	=48
2F]	2A	1f	2r
2D	1B	.	1dd
1G	.	1g	.
.	4A	.	2b
.	4G	.	.
=49	=49	=49	=49
2C	2G	2e	1cc
1F	2.A	2.f	.
.	.	.	2a
.	4D	4e	.
[2G	[2d	4d	[2b
.	.	4c	.
=50	=50	=50	=50
1G]	2d]	4B	4b]
.	.	4A	4a
.	4c	2.d	1g
.	4B	.	.
1D	1A	.	.
.	.	4c	.
.	.	4d	2f
.	.	4c	.
=51	=51	=51	=51
1G	1G	4B	1g
.	.	4G	.
.	.	2.g	.
1A	1r	.	1cc
.	.	8f#iL	.
.	.	8eJ	.
.	.	2f#i	.
=52	=52	=52	=52
0G	1d	[0g	0b
.	2d	.	.
.	2e	.	.
=53	=53	=53	=53
1G	1d	0g_	1r
2.G	2B	.	1dd
.	2d	.	.
4A	.	.	.
=54	=54	=54	=54
2B	2d	0g]	2dd
2c	2c	.	2ee
[1G	1B	.	1dd
=55	=55	=55	=55
1G]	2r	1g	2b
.	1B	.	2dd
1r	.	2g	2dd
.	2A	2a	2cc
=56	=56	=56	=56
1G	1d	1g	1b
2G	2B	2e	2r
2A	2c	2f	2cc
=57	=57	=57	=57
1G	1d	2.g	1.b
.	.	4g	.
2E	2r	1g	.
2G	2d	.	4a
.	.	.	4g
=58	=58	=58	=58
2G	1d	2G	2b
2F	.	2A	2a
2.E	1e	[1B	1g
8DL	.	.	.
8CJ	.	.	.
=59	=59	=59	=59
0G	2d	2B]	2r
.	2.B	4A	2dd
.	.	4G	.
.	.	[1g	1dd
.	4c	.	.
.	4d	.	.
.	4B	.	.
=60	=60	=60	=60
1C	2c	1g]	1ee
.	2c	.	.
2r	2.B	[1g	2dd
2G	.	.	[2b
.	4c	.	.
=61	=61	=61	=61
1G	4d	2g]	4b]
.	4e	.	4cc
.	2.d	4f	4dd
.	.	4e	4b
1A	.	1e	2cc
.	4c	.	.
.	2c	.	2cc
=62	=62	=62	=62
2G	2d	2r	0b
2.E	2e	2g	.
.	2B	1g	.
4F	.	.	.
4G	[2e	.	.
4E	.	.	.
=63	=63	=63	=63
2F	2e]	1a	0r
2F	2d	.	.
2.E	1e	2g	.
.	.	[2e	.
8DL	.	.	.
8CJ	.	.	.
=64	=64	=64	=64
1G	2r	4e]	0r
.	.	4f	.
.	2d	4g	.
.	.	4e	.
2D	1d	1f	.
2F	.	.	.
=65	=65	=65	=65
4C	1e	4e	1r
4D	.	4f	.
4E	.	4g	.
4F	.	4a	.
[1G	2d	[1b	2r
.	[2B	.	2dd
=66	=66	=66	=66
1G]	4B]	2b]	1dd
.	4c	.	.
.	4d	2g	.
.	4B	.	.
1C	1c	1g	1ee
=67	=67	=67	=67
2r	2.B	1.g	2dd
2G	.	.	2.b
.	4c	.	.
1G	4d	.	.
.	4e	.	4cc
.	[2d	4f	4dd
.	.	4e	4b
=68	=68	=68	=68
1A	2d]	1e	1cc
.	2c	.	.
2G	2d	2r	[1b
[2E	2e	2g	.
=69	=69	=69	=69
4E]	2B	1g	1b]
4F	.	.	.
4G	1e	.	.
4E	.	.	.
1F	.	2a	1r
.	2d	2a	.
=70	=70	=70	=70
0E	1e	2g	1r
.	.	2.e	.
.	1r	.	2r
.	.	4f	.
.	.	4g	2g
.	.	4e	.
=71	=71	=71	=71
0r	1d	1f	2a
.	.	.	2b
.	1c	1e	2cc
.	.	.	2a
=72	=72	=72	=72
1G	1B	2r	4b
.	.	.	4cc
.	.	4d	4dd
.	.	4e	4b
1F	1A	4f	1cc
.	.	4g	.
.	.	4a	.
.	.	4f	.
=73	=73	=73	=73
1E	2B	1g	1r
.	2c	.	.
1D	1d	1f	1dd
=74	=74	=74	=74
2E	2G	1r	1cc
2F	2A	.	.
2.G	2B	1g	1b
.	[2d	.	.
8FL	.	.	.
8GJ	.	.	.
=75	=75	=75	=75
1D	4d]	1f	1a
.	4c	.	.
.	2d	.	.
1r	2G	1e	2b
.	2A	.	2cc
=76	=76	=76	=76
0r	1B	1d	2.dd
.	.	.	8ccL
.	.	.	8bJ
.	1A	2e	1cc
.	.	2f#i	.
=77	=77	=77	=77
1r	1G	1g	1b
1G	1d	1r	1r
=78	=78	=78	=78
1G	1.d	1g	1b
1G	.	[1g	1b
.	2d	.	.
=79	=79	=79	=79
0G	0d	2g]	1b
.	.	2g	.
.	.	1g	1b
=80	=80	=80	=80
1C	1c	1e	1g
1C	1c	1e	1g
=81	=81	=81	=81
1.F	1.c	1.f	1.a
2F	2c	2f	2a
=82	=82	=82	=82
1F	1c	2.f	1a
.	.	8eL	.
.	.	8dJ	.
2r	1A	2e	1cc
2F	.	2f	.
=83	=83	=83	=83
2G	2B	2d	2b
2A	1c	2.f	2.a
2F	.	.	.
.	.	4d	4g
2G	2B	2e	[2g
=84	=84	=84	=84
1D	1A	1d	2g]
.	.	.	2f#i
1G	1r	2r	1g
.	.	2d	.
=85	=85	=85	=85
2r	1A	2e	1cc
2F	.	2f	.
2G	2B	2d	2b
2A	[2c	[2f	[2a
=86	=86	=86	=86
2F	2c]	4f]	4a]
.	.	4d	4g
2G	2B	2e	1g
1D	1A	1d	.
.	.	.	2f#i
=	=	=	=
00G	00G	00d	00g
=||	=||	=||	=||
*M2/1	*M2/1	*M2/1	*M2/1
*met(C|)	*met(C|)	*met(C|)	*met(C|)
!!section: Secunda pars: Postquam licaoniam
!!!OMD: Secunda pars: Postquam licaoniam
0r	0r	1c	0r
.	.	1f	.
=87	=87	=87	=87
0r	0r	2d	0r
.	.	2e	.
.	.	2f	.
.	.	2g	.
=88	=88	=88	=88
0r	0r	1e	1g
.	.	2r	1cc
.	.	[2f	.
=89	=89	=89	=89
0r	0r	2f]	2a
.	.	2d	2b
.	.	2e	2cc
.	.	2f	2dd
=90	=90	=90	=90
0r	0r	1g	1b
.	.	[1a	2r
.	.	.	[2cc
=91	=91	=91	=91
0r	0r	2a]	2cc]
.	.	4g	2a
.	.	4f	.
.	.	2g	2b
.	.	2a	2cc
=92	=92	=92	=92
0r	0r	2f	1dd
.	.	4e	.
.	.	4d	.
.	.	1c	[1ee
=93	=93	=93	=93
0r	0r	2r	2ee]
.	.	1f	4dd
.	.	.	4cc
.	.	.	2dd
.	.	2g	2ee
=94	=94	=94	=94
1r	0r	2a	2cc
.	.	4g	4b
.	.	4f	4a
1C	.	1e	2g
.	.	.	[2cc
=95	=95	=95	=95
1F	0r	2A	4cc]
.	.	.	4b
.	.	1f	1a
2D	.	.	.
2E	.	2e	2g
=96	=96	=96	=96
2F	1r	1d	2a
2G	.	.	1b
1E	1G	1e	.
.	.	.	4a
.	.	.	4g
=97	=97	=97	=97
2r	1c	1A	1a
1F	.	.	.
.	2A	1r	1r
2D	2B	.	.
=98	=98	=98	=98
2E	2c	0r	0r
2F	2d	.	.
1G	1B	.	.
=99	=99	=99	=99
1.A	2r	0r	0r
.	1c	.	.
4G	2A	.	.
4F	.	.	.
=100	=100	=100	=100
2G	2B	0r	0r
2A	2c	.	.
2F	1d	.	.
4E	.	.	.
4D	.	.	.
=101	=101	=101	=101
1C	1.e	0r	0r
2r	.	.	.
[2F	4d	.	.
.	4c	.	.
=102	=102	=102	=102
2F]	2d	1r	0r
2G	2e	.	.
2A	2c	2.e	.
4G	4B	.	.
4F	4A	4d	.
=103	=103	=103	=103
2E	1G	4e	0r
.	.	4f	.
1C	.	1g	.
.	1c	.	.
2A	.	2f	.
=104	=104	=104	=104
2G	2B	2e	0r
2F	1A	1d	.
1E	.	.	.
.	2G	2c#i	.
=105	=105	=105	=105
1D	2A	2.d	1r
.	1B	.	.
.	.	4e	.
1r	.	4f	1dd
.	.	4d	.
.	4A	[2g	.
.	4G	.	.
=106	=106	=106	=106
0r	1A	2g]	1cc
.	.	2f	.
.	1G	1g	2b
.	.	.	[2dd
=107	=107	=107	=107
0r	1g	0r	2dd]
.	.	.	4cc
.	.	.	4b
.	1f	.	2a
.	.	.	2a
=108	=108	=108	=108
1r	2e	0r	4g
.	.	.	4a
.	1g	.	4b
.	.	.	4cc
2r	.	.	4dd
.	.	.	4g
2C	4f	.	[2cc
.	4e	.	.
=109	=109	=109	=109
1G	2d	1r	2cc]
.	2d	.	2b
2A	1c	2r	1cc
2A	.	2c	.
=110	=110	=110	=110
2G	2r	1g	0r
2E	2G	.	.
1F	1d	2a	.
.	.	2a	.
=111	=111	=111	=111
1E	2e	2g	2r
.	2e	2e	2g
1r	2d	1f	1dd
.	2B	.	.
=112	=112	=112	=112
1C	1c	2e	2ee
.	.	2g	2ee
2.G	1B	2.g	2dd
.	.	.	2b
4G	.	4g	.
=113	=113	=113	=113
2A	1r	2e	1cc
2A	.	2f#i	.
[1G	2r	[1g	2b
.	2G	.	2dd
=114	=114	=114	=114
1G]	2.d	1g]	2.dd
.	4d	.	4dd
1r	2e	1r	2b
.	2e	.	2cc
=115	=115	=115	=115
1G	1d	1g	1dd
[1c	1r	[1a	1r
=116	=116	=116	=116
2c]	0r	2a]	0r
2B	.	2g	.
2A	.	2f	.
[2c	.	[2e	.
=117	=117	=117	=117
2c]	0r	4e]	0r
.	.	4d	.
2B	.	1g	.
1A	.	.	.
.	.	2f#i	.
=118	=118	=118	=118
1G	1d	1g	1dd
1r	[1g	1r	[1ee
=119	=119	=119	=119
0r	2g]	0r	2ee]
.	2f	.	2dd
.	2e	.	2cc
.	[2g	.	[2b
=120	=120	=120	=120
0r	2g]	0r	4b]
.	.	.	4a
.	2f	.	1dd
.	1e	.	.
.	.	.	2cc#i
=121	=121	=121	=121
2G	1d	2g	1dd
2G	.	2g	.
2.c	1r	2.a	1r
4B	.	4g	.
=122	=122	=122	=122
2A	0r	2f	0r
2c	.	2a	.
2B	.	2g	.
2A	.	2f#i	.
=123	=123	=123	=123
1G	2d	1g	2dd
.	2d	.	2dd
1r	2.g	1r	2.ee
.	4f	.	4dd
=124	=124	=124	=124
0r	2e	0r	2cc
.	2g	.	2ee
.	2f	.	2dd
.	2e	.	2cc#i
=125	=125	=125	=125
2.G	1d	2.g	1dd
4G	.	4g	.
1c	1r	1a	1r
=126	=126	=126	=126
2.A	0r	2.f	0r
4c	.	4a	.
2B	.	2g	.
2A	.	2f#i	.
=127	=127	=127	=127
1G	2.d	1g	2.dd
.	4d	.	4dd
1r	1g	1r	1ee
=128	=128	=128	=128
0r	2.e	0r	2.cc
.	4g	.	4ee
.	2f	.	2dd
.	2e	.	2cc
=129	=129	=129	=129
0G	1d	0g	1dd
.	2r	.	[1b
.	[2d	.	.
=130	=130	=130	=130
1G	2d]	1g	2b]
.	2d	.	2b
1G	[1e	1g	1b
=131	=131	=131	=131
0A	2e]	0e	0cc
.	2c	.	.
.	1c	.	.
=132	=132	=132	=132
1D	1.d	1f	1a
[1G	.	[1g	[1b
.	4c	.	.
.	4B	.	.
=133	=133	=133	=133
2G]	2B	1g]	2b]
2C	1e	.	4a
.	.	.	4g
1C	.	1e	2g
.	4d	.	[2cc
.	4c	.	.
=134	=134	=134	=134
2.F	1c	2.f	4cc]
.	.	.	4b
.	.	.	4a
4E	.	4g	4g
2G	2r	4d	2b
.	.	4e	.
[2F	[2c	[2f	[2a
=135	=135	=135	=135
2F]	2c]	4f]	4a]
.	.	4e	4g
2G	2B	1d	1g
1D	2A	.	.
.	[2B	2d	2f#i
=136	=136	=136	=136
1G	2B]	1d	1g
.	4A	.	.
.	4G	.	.
2F	2A	2r	1r
2E	2G	[2g	.
=137	=137	=137	=137
4D	1A	2g]	1dd
4E	.	.	.
4F	.	2f	.
4G	.	.	.
4A	1r	2e	2cc
4E	.	.	.
2G	.	[2d	2b
=138	=138	=138	=138
1D	1d	4d]	2.a
.	.	4e	.
.	.	2f	.
.	.	.	4b
1r	2c	2e	2cc
.	2B	2d	[2dd
=139	=139	=139	=139
1r	1A	1e	2dd]
.	.	.	2cc#i
1G	2B	2.d	2dd
.	[2d	.	4cc-ny
.	.	4e	4b
=140	=140	=140	=140
2F	4d]	2f	2a
.	4c	.	.
2E	4c	2.g	2g
.	4B	.	.
1D	2.d	.	1a
.	.	8f#iL	.
.	.	8eJ	.
.	.	2f#i	.
.	4c	.	.
=141	=141	=141	=141
2E	2.B	1g	0r
2.G	.	.	.
.	8AL	.	.
.	8GJ	.	.
.	1A	1r	.
8F#iL	.	.	.
8EJ	.	.	.
2F#i	.	.	.
=142	=142	=142	=142
1G	1G	0g	0b
2r	2r	.	.
2G	2d	.	.
=143	=143	=143	=143
1G	1d	1g	1b
[1C	[1e	[1g	[1cc
=144	=144	=144	=144
2C]	2e]	2g]	2cc]
2C	2e	2g	2cc
1C	1e	2g	1cc
.	.	[2g	.
=145	=145	=145	=145
1G	1d	2g]	1b
.	.	4f	.
.	.	4g	.
[1c	2r	2a	[1ee
.	[2e	[2g	.
=146	=146	=146	=146
2c]	2e]	1g]	2ee]
2G	2B	.	2dd
1A	1c	2e	1cc
.	.	2f#i	.
=147	=147	=147	=147
1.G	0d	1g	1b
.	.	2r	2r
4F	.	2d	2dd
4E	.	.	.
=148	=148	=148	=148
4D	0r	1f	1dd
4E	.	.	.
4F	.	.	.
4G	.	.	.
1A	.	1e	1cc
=149	=149	=149	=149
2r	2r	1d	2dd
2D	2d	.	4cc
.	.	.	4b
1F	1d	1r	1a
=150	=150	=150	=150
1E	1c	1r	1r
1D	2d	2r	2r
.	[2B	2d	2dd
=151	=151	=151	=151
0r	4B]	1f	1dd
.	4c	.	.
.	2d	.	.
.	2A	1e	1cc
.	2c	.	.
=152	=152	=152	=152
0r	1G	2d	1dd
.	.	1g	.
.	1c	.	2ee
.	.	2g	2ee
=153	=153	=153	=153
0r	0r	2.a	2.ff
.	.	4g	4ee
.	.	2f	2dd
.	.	2e	2cc#i
=154	=154	=154	=154
2r	2r	2d	1dd
2D	2d	4c	.
.	.	4B	.
1F	1d	1A	1r
=155	=155	=155	=155
1E	1c	0r	0r
2D	1d	.	.
[2G	.	.	.
=156	=156	=156	=156
2G]	2e	0r	0r
2G	2e	.	.
2.A	2.f	.	.
4G	4e	.	.
=157	=157	=157	=157
2F	2d	1r	1r
2E	2c#i	.	.
[1D	[1d	1f	1a
=158	=158	=158	=158
1D]	2d]	2f	2a
.	4c	2d	2a
.	4B	.	.
1r	1A	1e	1cc
=159	=159	=159	=159
0r	2r	2d	2dd
.	2d	2f	2a
.	2d	2f	2a
.	2d	2f	2a
=160	=160	=160	=160
0r	1e	1g	1cc
.	2.d	2.f	2.b
.	4d	4f	4b
=161	=161	=161	=161
1r	2c	2e	2a
.	2B	2d	2g#i
1F	[1A	2.c	1a
.	.	8BL	.
.	.	8cJ	.
=162	=162	=162	=162
2D	1A]	2d	2r
2F	.	2.c	2a
2.F	1r	.	2a
.	.	4B	.
.	.	4c	4g
8EL	.	4d	4f
8DJ	.	.	.
=163	=163	=163	=163
1C	1c	4e	2g
.	.	4f	.
.	.	4g	2g
.	.	4e	.
[1F	2A	1f	[1a
.	2c	.	.
=164	=164	=164	=164
1F]	2.c	1r	1a]
.	8BL	.	.
.	8AJ	.	.
2E	2G	1g	1r
[2C	2c	.	.
=165	=165	=165	=165
4C]	1c	2e	1r
4D	.	.	.
4E	.	2g	.
4F	.	.	.
[1G	2B	2.g	1dd
.	[2d	.	.
.	.	8fL	.
.	.	8eJ	.
=166	=166	=166	=166
1G]	4d]	2d	2b
.	4c	.	.
.	4B	2g	2dd
.	4A	.	.
1G	1B	2g	2.dd
.	.	4d	.
.	.	4e	8ccL
.	.	.	8bJ
=167	=167	=167	=167
1F	0c	4f	1a
.	.	4g	.
.	.	2.a	.
[1A	.	.	1cc
.	.	4g	.
.	.	4f	.
.	.	4e	.
=168	=168	=168	=168
1A]	2r	1f	1cc
.	2c	.	.
[1G	1d	1g	2b
.	.	.	[2g
=169	=169	=169	=169
1G]	2B	2r	4g]
.	.	.	4a
.	2.G	2d	4b
.	.	.	4cc
2r	.	2d	1dd
.	4A	.	.
2D	4B	2d	.
.	4A	.	.
=170	=170	=170	=170
2D	1d	1.f	2r
2D	.	.	2a
[1F	2r	.	2a
.	2A	4e	2a
.	.	4d	.
=171	=171	=171	=171
2F]	2A	4c	1.cc
.	.	4d	.
4E	2A	4e	.
4D	.	4f	.
4C	2.c	2.g	.
4D	.	.	.
4E	.	.	4b
4F	8BL	4f	4a
.	8AJ	.	.
=172	=172	=172	=172
2G	2B	4d	2g
.	.	4e	.
1F	2.c	2.f	2.a
.	4A	4e	4g
4E	[2d	2f	4f
4D	.	.	4e
=173	=173	=173	=173
2G	2d]	2g	2d
2E	2G	2c	1g
1D	1A	2.d	.
.	.	.	2f#i
.	.	4c	.
=174	=174	=174	=174
2r	2G	4B	1g
.	.	4G	.
2G	2d	1g	.
1A	2.c	.	2r
.	.	4f	2cc
.	4B	4e	.
=175	=175	=175	=175
1A	4c	2f	1cc
.	4d	.	.
.	4e	2e	.
.	4c	.	.
[1G	1d	1g	2b
.	.	.	[2g
=176	=176	=176	=176
1G]	2B	2r	4g]
.	.	.	4a
.	2.G	2d	4b
.	.	.	4cc
2r	.	2d	1dd
.	4A	.	.
2D	4B	2d	.
.	4A	.	.
=177	=177	=177	=177
2D	1d	1.f	2r
2D	.	.	2a
[1F	2r	.	2a
.	2A	4e	2a
.	.	4d	.
=178	=178	=178	=178
2F]	2A	4c	1.cc
.	.	4d	.
4E	2A	4e	.
4D	.	4f	.
4C	2.c	2.g	.
4D	.	.	.
4E	.	.	4b
4F	4A	4f	4a
=179	=179	=179	=179
2G	2B	4d	2g
.	.	4e	.
1F	2.c	2.f	2.a
.	4A	4e	4g
4E	[2d	2f	4f
4D	.	.	4e
=180	=180	=180	=180
2G	2d]	2g	2d
4F	2G	2c	1g
4E	.	.	.
1D	1A	[1d	.
.	.	.	2f#i
=181	=181	=181	=181
1G	0G	2d]	1.g
.	.	1B	.
1E	.	.	.
.	.	2c	4f
.	.	.	4e
=182	=182	=182	=182
0D;	0A;	0d;	0f#i;
=183	=183	=183	=183
00Gl	00Gl	00dl	00gl
==	==	==	==
*-	*-	*-	*-
!!!system-decoration: [*]
!!!RDF**kern: i = editorial accidental
!!!RDF**kern: l = terminal long
!!!ENC: Benjamin Ory
!!!END: 2021/1/4
!!!EED: Benjamin Ory
!!!EEV: 2021/04/22
!!!YEC: Copyright 2021 Benjamin Ory, All Rights Reserved
!!!ONB: Translated from MusicXML on 2021/04/22
